!!!COM: Marenzio, Luca
!!!CDT:
!!!PTL: Il quinto libro de madrigali a sei voci
!!!PPP: Venice
!!!PPR: Angelo Gardano
!!!PDT: 1591
!!!PUB-format:
!!!RISM: 1591-21
!!!rime: 288
!!!OTL: Amatemi, ben mio
!!!AGN: Madrigal
!!!SCT: Trm0288h
!!!SCA: Trm0288h
!!!original-voices: 6
!!!extant-voices: 6
!!!complete: Y
!!!final: D
**kern	**text	**kern	**text	**kern	**text	**kern	**text	**kern	**text	**kern	**text
*part6	*part6	*part5	*part5	*part4	*part4	*part3	*part3	*part2	*part2	*part1	*part1
*staff6	*staff6	*staff5	*staff5	*staff4	*staff4	*staff3	*staff3	*staff2	*staff2	*staff1	*staff1
*I"Basso	*	*I"Sesto	*	*I"Tenore	*	*I"Alto	*	*I"Quinto	*	*I"Canto	*
*I'B	*	*I'VI	*	*I'T	*	*I'A	*	*I'V	*	*I'C	*
*oclefF4	*	*oclefC4	*	*oclefC4	*	*oclefC3	*	*oclefC2	*	*oclefC1	*
*clefF4	*	*clefGv2	*	*clefGv2	*	*clefG2	*	*clefG2	*	*clefG2	*
*k[]	*	*k[]	*	*k[]	*	*k[]	*	*k[]	*	*k[]	*
*a:	*	*a:	*	*a:	*	*a:	*	*a:	*	*a:	*
*omet(C)	*	*omet(C)	*	*omet(C)	*	*omet(C)	*	*omet(C)	*	*omet(C)	*
*M4/2	*	*M4/2	*	*M4/2	*	*M4/2	*	*M4/2	*	*M4/2	*
=1	=1	=1	=1	=1	=1	=1	=1	=1	=1	=1	=1
0r	.	0r	.	2d	A-	0r	.	4r	.	4r	.
.	.	.	.	.	.	.	.	4f	A-	4a	A-
.	.	.	.	4.d	-ma-	.	.	4.f	-ma-	4.a	-ma-
.	.	.	.	8A	-te-	.	.	8f	-te-	8a	-te-
.	.	.	.	4c	-mi,	.	.	4e	-mi,	4g	-mi,
.	.	.	.	4d	ben	.	.	4d	ben	4f	ben
.	.	.	.	2A	mi-	.	.	2c#X	mi-	2e	mi-
=2	=2	=2	=2	=2	=2	=2	=2	=2	=2	=2	=2
0r	.	0r	.	4A	-o,	4r	.	4c#i	-o,	4e	-o,
.	.	.	.	2D	Per-	2A	Per-	2d	Per-	2f#X	Per-
.	.	.	.	4G	-ché	4B	-ché	4d	-ché	4g	-ché
.	.	.	.	2F	sde-	2c	sde-	2f	sde-	2a	sde-
.	.	.	.	4F	-gna il	4c	-gna il	4f	-gna il	4a	-gna il
.	.	.	.	4D	mio	4d	mio	4f	mio	4a	mio
=3	=3	=3	=3	=3	=3	=3	=3	=3	=3	=3	=3
0r	.	0r	.	2E	co-	2B	co-	2e	co-	2g#X	co-
.	.	.	.	4E	-re	4B	-re	4e	-re	4g#i	-re
.	.	.	.	4E	O-	4B	O-	4e	O-	4g#i	O-
.	.	.	.	4A	-gni al-	4c	-gni al-	4e	-gni al-	4a	-gni al-
.	.	.	.	4G	-tro	4d	-tro	4g	-tro	4b	-tro
.	.	.	.	2c	ci-	2e	ci-	2g	ci-	2cc	ci-
=4	=4	=4	=4	=4	=4	=4	=4	=4	=4	=4	=4
0r	.	0r	.	4F	-bo e	4f	-bo e	4a	-bo e	4cc	-bo e
.	.	.	.	2F	vi-	2f	vi-	2a	vi-	2cc	vi-
.	.	.	.	4G	-ve	4d	-ve	4g	-ve	4b-X	-ve
.	.	.	.	4A	sol	4c#X	sol	4e	sol	4a	sol
.	.	.	.	4B-X	d'A-	2d	d'A-	4d	d'A-	4g	d'A-
.	.	.	.	2A	-mo-	.	.	2e	-mo-	2a	-mo-
.	.	.	.	.	.	4c#X	-mo-	.	.	.	.
=5	=5	=5	=5	=5	=5	=5	=5	=5	=5	=5	=5
2r	.	2r	.	2D	-re.	2d	-re.	4f	-re.	4a	-re.
.	.	.	.	.	.	.	.	4.d	V'a-	4.f	V'a-
4.D	V'a-	4.F	V'a-	4r	.	4r	.	.	.	.	.
.	.	.	.	.	.	.	.	8e	-me-	8g	-me-
.	.	.	.	4.F	V'a-	4.A	V'a-	2f	-rò,	2a	-rò,
8E	-me-	8G	-me-	.	.	.	.	.	.	.	.
2F	-rò,	2A	-rò,	.	.	.	.	.	.	.	.
.	.	.	.	8G	-me-	8B	-me-	.	.	.	.
.	.	.	.	4A	-rò,	2c	-rò,	4.f	V'a-	4.a	V'a-
4.F	V'a-	4.A	V'a-	4r	.	.	.	.	.	.	.
.	.	.	.	.	.	.	.	8g	-me-	8b	-me-
.	.	.	.	[4A	V'a-	[4c	V'a-	[4a	-rò,	[4cc	-rò,
8G	-me-	8B	-me-	.	.	.	.	.	.	.	.
=6	=6	=6	=6	=6	=6	=6	=6	=6	=6	=6	=6
2A	-rò,	2c	-rò,	8A]	.	8c]	.	4a]	.	4cc]	.
.	.	.	.	8B	-me-	8d	-me-	.	.	.	.
.	.	.	.	4c	-rò,	2e	-rò,	4.a	<V'a-	4.cc	<V'a-
4.A	<V'a-	4.c	<V'a-	2r	.	.	.	.	.	.	.
.	.	.	.	.	.	.	.	8b	-me-	8dd	-me-
.	.	.	.	.	.	4.e	<V'a-	2cc	-rò,>	2ee	-rò,>
8B	-me-	8d	-me-	.	.	.	.	.	.	.	.
4c	-rò,>	4e	-rò,>	1r	.	.	.	.	.	.	.
.	.	.	.	.	.	8f	-me-	.	.	.	.
2G	se	2B	se	.	.	4g	-rò,>	2b	se	2dd	se
.	.	.	.	.	.	4g	se	.	.	.	.
4A	m'a-	[4e	m'a-	.	.	4c	m'a-	4a	m'a-	4cc	m'a-
=7	=7	=7	=7	=7	=7	=7	=7	=7	=7	=7	=7
2E	-ma-	4e]	.	0r	.	2e	-ma-	2g#X	-ma-	2b	-ma-
.	.	2B	-ma-	.	.	.	.	.	.	.	.
2E	-te,	.	.	.	.	2e	-te,	2g#i	-te,	2b	-te,
.	.	4B	-te,	.	.	.	.	.	.	.	.
4A	Né	2c	Né	.	.	4e	Né	4r	.	1r	.
2A	men	.	.	.	.	2e	men	4a	Né	.	.
.	.	4c	men	.	.	.	.	4a	men	.	.
4E	del-	4B	del-	.	.	4e	del-	4gnXi	del-	.	.
=8	=8	=8	=8	=8	=8	=8	=8	=8	=8	=8	=8
4F	-la	4A	-la	1r	.	4c	-la	4f	-la	0r	.
4C	mia	4c	mia	.	.	4g	mia	4e	mia	.	.
2G	vi-	2B	vi-	.	.	2g	vi-	2d	vi-	.	.
4G	-ta	4B	-ta	4r	.	2g	-ta	4d	-ta	.	.
4C	L'a-	4c	L'a-	4e	L'a-	.	.	4g	L'a-	.	.
4C	-mor	4c	-mor	4e	-mor	2r	.	4g	-mor	.	.
4D	fia	4A	fia	4d	fia	.	.	4f	fia	.	.
=9	=9	=9	=9	=9	=9	=9	=9	=9	=9	=9	=9
2E	lun-	4G#X	lun-	2B	lun-	4r	.	4e	lun-	4r	.
.	.	4G#i	-go e	.	.	2e	e	4B	-go	4b	e
4AA	-go e	8AL	fia	2A	-go e	.	.	4r	.	8ccL	fia
.	.	8GnXi	.	.	.	.	.	.	.	8b	.
2D	fia	8F	.	.	.	2f	fia	4d	e	8a	.
.	.	8EJ	.	.	.	.	.	.	.	8gJ	.
.	.	2D	.	2A	fia	.	.	2a	fia	4f	.
4F	con	.	.	.	.	4f	con	.	.	4a	con
4E	lui	4r	.	2r	.	4c	lui	4g	con	[2cc	lui
4F	fi-	4A	con	.	.	4c	fi-	4f	lui	.	.
=10	=10	=10	=10	=10	=10	=10	=10	=10	=10	=10	=10
1C	-ni-	4G	lui	1r	.	1c	-ni-	4e	fi-	4cc]	.
.	.	4F	fi-	.	.	.	.	2f	-ni-	4a	fi-
.	.	2G	-ni-	.	.	.	.	.	.	2g	-ni-
.	.	.	.	.	.	.	.	4e	.	.	.
2FF	-ta.	1F	-ta.	2r	.	[1c	-ta.	1f	-ta.	1a	-ta.
[2F	Ma	.	.	[2A	Ma	.	.	.	.	.	.
=11	=11	=11	=11	=11	=11	=11	=11	=11	=11	=11	=11
4F]	.	0r	.	4A]	.	1c]	.	4a	Ma	4cc	Ma
4G	s'a-	.	.	4B	s'a-	.	.	4g	s'a-	4b	s'a-
2A	-mar-	.	.	2c	-mar-	.	.	2e	-mar-	2a	-mar-
4D	-mi	.	.	4B	-mi	1r	.	4.d	-mi	4f	-mi
4D	ne-	.	.	4A	ne-	.	.	.	.	4f	ne-
.	.	.	.	.	.	.	.	8c	ne-	.	.
2E	-ga-	.	.	2G#X	-ga-	.	.	2B	-ga-	2e	-ga-
=12	=12	=12	=12	=12	=12	=12	=12	=12	=12	=12	=12
1AA	-te,	2r	.	2A	-te,	2r	.	4.c	-te,	1e	-te,
.	.	.	.	.	.	.	.	8d	.	.	.
.	.	2.A	Ma	2.c	<Ma	2a	Ma	2e	.	.	.
1r	.	.	.	.	.	2a	s'a-	1r	.	4ee	Ma
.	.	4B	s'a-	4d	s'a-	.	.	.	.	4dd	s'a-
.	.	2c	-mar-	2e	-mar-	2g	-mar-	.	.	2cc	-mar-
=13	=13	=13	=13	=13	=13	=13	=13	=13	=13	=13	=13
1r	.	4F	-mi	4d	-mi	4.f	-mi	1r	.	4a	-mi
.	.	4F	ne-	4c	ne-	.	.	.	.	4a	ne-
.	.	.	.	.	.	8e	ne-	.	.	.	.
.	.	2G	-ga-	2B	-ga-	2d	-ga-	.	.	2g	-ga-
2r	.	1C	-te,	2c	-te,>	2e	-te,	4r	.	1g	-te,
.	.	.	.	.	.	.	.	8e	Mo-	.	.
.	.	.	.	.	.	.	.	8f	-ri-	.	.
4r	.	.	.	4G	Mo-	4r	.	2g	-rò,	.	.
8C	Mo-	.	.	4c	-ri-	8e	Mo-	.	.	.	.
8D	-ri-	.	.	.	.	8f	-ri-	.	.	.	.
=14	=14	=14	=14	=14	=14	=14	=14	=14	=14	=14	=14
2E	-rò,	2r	.	2B	-rò	2g	-rò	4r	.	4r	.
.	.	.	.	.	.	.	.	8e	<Mo-	8g	Mo-
.	.	.	.	.	.	.	.	8f	-ri-	8a	-ri-
4r	.	4r	.	4e	di-	2r	.	2g	-rò,>	2b	-rò,
8E	Mo-	8GG	Mo-	4e	-spe-	.	.	.	.	.	.
8F	-ri-	8AA	-ri-	.	.	.	.	.	.	.	.
2.G	-rò	2BB	-rò	2d	-ra-	1r	.	4r	.	4r	.
.	.	.	.	.	.	.	.	8g	Mo-	8b	Mo-
.	.	.	.	.	.	.	.	8a	-ri-	8cc	-ri-
.	.	4BB	dis-	2G	-to	.	.	4bnX	-rò	[2dd	-rò
8F	di-	4C	-pe-	.	.	.	.	8a	di-	.	.
8E	-spe-	.	.	.	.	.	.	8g	-spe-	.	.
=15	=15	=15	=15	=15	=15	=15	=15	=15	=15	=15	=15
1D	-ra-	1D	-ra-	1r	.	1r	.	4f#X	-ra-	4dd]	.
.	.	.	.	.	.	.	.	2g	.	8cc	di-
.	.	.	.	.	.	.	.	.	.	8b	-spe-
.	.	.	.	.	.	.	.	.	.	2a	-ra-
.	.	.	.	.	.	.	.	4f#X	.	.	.
4GG	-to	2D	-to	4r	.	4r	.	2g	-to	4g	-to
4G	Per	.	.	4d	Per	4g	Per	.	.	4b	Per
4F	non	2r	.	4f	non	4a	non	2r	.	4cc	non
4D	a-	.	.	4f	a-	4a	a-	.	.	4dd	a-
=16	=16	=16	=16	=16	=16	=16	=16	=16	=16	=16	=16
2E	-mar-	1r	.	2e	-mar-	2g#X	-mar-	1r	.	2b	-mar-
2E	-vi	.	.	2e	-vi	2g#i	-vi	.	.	2b	-vi
1AA	non	2.A	non	[1e	non	1a	non	2r	.	[1cc	non
.	.	.	.	.	.	.	.	[2a	non	.	.
.	.	4B	.	.	.	.	.	.	.	.	.
=17	=17	=17	=17	=17	=17	=17	=17	=17	=17	=17	=17
1AA	es-	4c	.	2e]	.	1e	es-	2a]	.	2cc]	.
.	.	4d	.	.	.	.	.	.	.	.	.
.	.	2e	.	1A	es-	.	.	2a	es-	2cc	es-
2D	-sen-	4A	es-	.	.	1d	-sen-	2f#X	-sen-	2a	-sen-
.	.	2D	-sen-	.	.	.	.	.	.	.	.
2GG	-do a-	.	.	[2G	-sen-	.	.	4.g	-do	2b-X	-do a-
.	.	4D	-do a-	.	.	.	.	.	.	.	.
.	.	.	.	.	.	.	.	8fnXi	.	.	.
=18	=18	=18	=18	=18	=18	=18	=18	=18	=18	=18	=18
0AA	-ma-	0A	-ma-	2G]	.	2c#X	-do a-	2e	.	0a	-ma-
.	.	.	.	2F	-do a-	2.d	-ma-	4r	.	.	.
.	.	.	.	.	.	.	.	4A	a-	.	.
.	.	.	.	1E	-ma-	.	.	1e	-ma-	.	.
.	.	.	.	.	.	8c#XL	.	.	.	.	.
.	.	.	.	.	.	8BJ	.	.	.	.	.
.	.	.	.	.	.	2c#X	.	.	.	.	.
=19	=19	=19	=19	=19	=19	=19	=19	=19	=19	=19	=19
2D	-to,	1A	-to,	2D	-to,	2d	-to,	2f#X	-to,	1a	-to,
2.F	Ma	.	.	2.A	Ma	2r	.	4r	.	.	.
.	.	.	.	.	.	.	.	2a	Ma	.	.
.	.	1r	.	.	.	1r	.	.	.	4cc	Ma
4G	s'a-	.	.	4B	s'a-	.	.	4g	s'a-	4b	s'a-
2A	-mar-	.	.	2c	-mar-	.	.	2e	-mar-	2a	-mar-
=20	=20	=20	=20	=20	=20	=20	=20	=20	=20	=20	=20
4D	-mi	1r	.	4B	-mi	1r	.	4.d	-mi	4f	-mi
4D	ne-	.	.	4A	ne-	.	.	.	.	4f	ne-
.	.	.	.	.	.	.	.	8c	ne-	.	.
2E	-ga-	.	.	2G#X	-ga-	.	.	2B	-ga-	2e	-ga-
1AA	-te,	2r	.	2A	-te,	2r	.	4.c	-te,	1e	-te,
.	.	.	.	.	.	.	.	8d	.	.	.
.	.	[2A	Ma	[2c	Ma	2a	Ma	2e	.	.	.
=21	=21	=21	=21	=21	=21	=21	=21	=21	=21	=21	=21
0r	.	4A]	.	4c]	.	2a	s'a-	0r	.	4ee	Ma
.	.	4B	s'a-	4d	s'a-	.	.	.	.	4dd	s'a-
.	.	2c	-mar-	2e	-mar-	2g	-mar-	.	.	2cc	-mar-
.	.	4F	-mi	4d	-mi	4.f	-mi	.	.	4a	-mi
.	.	4F	ne-	4c	ne-	.	.	.	.	4a	ne-
.	.	.	.	.	.	8e	ne-	.	.	.	.
.	.	2G	-ga-	2B	-ga-	2d	-ga-	.	.	2g	-ga-
=22	=22	=22	=22	=22	=22	=22	=22	=22	=22	=22	=22
2r	.	1C	-te,	2c	-te,	2e	-te,	4r	.	1g	-te,
.	.	.	.	.	.	.	.	8e	Mo-	.	.
.	.	.	.	.	.	.	.	8f	-ri-	.	.
4r	.	.	.	4G	Mo-	4r	.	2g	-rò,	.	.
8C	Mo-	.	.	4c	-ri-	8e	Mo-	.	.	.	.
8D	-ri-	.	.	.	.	8f	-ri-	.	.	.	.
2E	-rò,	2r	.	2B	-rò	2g	-rò	4r	.	4r	.
.	.	.	.	.	.	.	.	8e	Mo-	8g	Mo-
.	.	.	.	.	.	.	.	8f	-ri-	8a	-ri-
4r	.	4r	.	[4e	di-	2r	.	2g	-rò,	2b	-rò,
8E	Mo-	8G	Mo-	4e]	-spe-	.	.	.	.	.	.
8F	-ri-	8A	-ri-	.	.	.	.	.	.	.	.
=23	=23	=23	=23	=23	=23	=23	=23	=23	=23	=23	=23
2.G	-rò	2B	-rò	2d	-ra-	0r	.	4r	.	4r	.
.	.	.	.	.	.	.	.	8g	Mo-	8b	Mo-
.	.	.	.	.	.	.	.	8a	-ri-	8cc	-ri-
.	.	4B	di-	2G	-to	.	.	4bnX	-rò	2.dd	-rò
8F	di-	4c	-spe-	.	.	.	.	8a	di-	.	.
8E	-spe-	.	.	.	.	.	.	8g	-spe-	.	.
1D	-ra-	1d	-ra-	1r	.	.	.	4f#X	-ra-	.	.
.	.	.	.	.	.	.	.	2g	.	8cc	di-
.	.	.	.	.	.	.	.	.	.	8b	-spe-
.	.	.	.	.	.	.	.	.	.	2a	-ra-
.	.	.	.	.	.	.	.	4f#X	.	.	.
=24	=24	=24	=24	=24	=24	=24	=24	=24	=24	=24	=24
4GG	-to	2d	-to	4r	.	4r	.	2g	-to	4g	-to
4G	Per	.	.	4d	Per	4g	Per	.	.	4b	Per
4F	non	2r	.	4f	non	4a	non	2r	.	4cc	non
4D	a-	.	.	4f	a-	4a	a-	.	.	4dd	a-
2E	-mar-	1r	.	2e	-mar-	2g#X	-mar-	1r	.	2b	-mar-
2E	-vi	.	.	2e	-vi	2g#i	-vi	.	.	2b	-vi
=25	=25	=25	=25	=25	=25	=25	=25	=25	=25	=25	=25
1AA	non	2.A	non	1.e	non	1a	non	2r	.	1.cc	non
.	.	.	.	.	.	.	.	1a	non	.	.
.	.	4B	.	.	.	.	.	.	.	.	.
1AA	es-	4c	.	.	.	1e	es-	.	.	.	.
.	.	4d	.	.	.	.	.	.	.	.	.
.	.	2e	.	[2A	es-	.	.	2a	es-	2cc	es-
=26	=26	=26	=26	=26	=26	=26	=26	=26	=26	=26	=26
2D	-sen-	4A	es-	2A]	.	1d	-sen-	2f#X	-sen-	2a	-sen-
.	.	2D	-sen-	.	.	.	.	.	.	.	.
2GG	-do a-	.	.	1G	-sen-	.	.	4.g	-do	2b-X	-do a-
.	.	4D	-do a-	.	.	.	.	.	.	.	.
.	.	.	.	.	.	.	.	8fnXi	.	.	.
[1AA	-ma-	[1A	-ma-	.	.	2c#X	-do a-	2e	.	[1a	-ma-
.	.	.	.	2F	-do a-	[2d	-ma-	4r	.	.	.
.	.	.	.	.	.	.	.	4A	a-	.	.
=27	=27	=27	=27	=27	=27	=27	=27	=27	=27	=27	=27
1AA]	.	1A]	.	1E	-ma-	4d]	.	1e	-ma-	1a]	.
.	.	.	.	.	.	8c#XL	.	.	.	.	.
.	.	.	.	.	.	8BJ	.	.	.	.	.
.	.	.	.	.	.	2c#X	.	.	.	.	.
=28	=28	=28	=28	=28	=28	=28	=28	=28	=28	=28	=28
00Dl	-to.	00Al	-to.	00Dl	-to.	00dl	-to.	00f#Xl	-to.	00al	-to.
==	==	==	==	==	==	==	==	==	==	==	==
*-	*-	*-	*-	*-	*-	*-	*-	*-	*-	*-	*-
!!!system-decoration: [*]
!!!RDF**kern: i = editorial accidental
!!!RDF**kern: l = terminal long
!!!ENC: Emiliano Ricciardi
!!!END: 2019
!!!EED: Coluzzi, Seth
!!!EEV: 2019/04/21
!!!YEC: Copyright 2018 Emiliano Ricciardi, All Rights Reserved
!!!ONB: Translated from MusicXML on 2019/04/21 and edited by Craig Stuart Sapp
!!@@BEGIN:	VERSEDATA
!!@SOLERTI:	288
!!@CATALOGNUM:	Trm0288
!!@LAST_MODIFIED: 2020/07/12
!!@ATTRIBUTION:	not secure
!!@TITLE:		Amatemi, ben mio
!!@GENRE:		madrigale
!!@MANUSRC:	none
!!@PRINTSRC:	23, 26, 36, 37, 69, 141, 145, 166, 169
!!@@BEGIN:	VERSES
!!@ABOUTIT:
!!@ABOUTEN:
!!@EDITOR:	Solerti, Angelo
!!@EDITION_TITLE: Le Rime di Torquato Tasso
!!@EDITION_LOC:	Bologna
!!@EDITION_PUB:	Romagnoli-Dall’Acqua
!!@EDITION_DATE:  1898-1902
!!@EDITION_VOL:	2
!!@EDITION_PAGE:  357
!!@TRANSLATOR:	Emiliano Ricciardi and Amyrose McCue Gill
!!@VERSE:
!!	Amatemi, ben mio,
!!	Perché sdegna il mio core
!!	Ogni altro cibo e vive sol d'amore.
!!	V'amerò, se m'amate,
!!	Né men de la mia vita
!!	L'amor fia lungo e fia con lui finita.
!!	Ma s'amarmi negate,
!!	Morirò disperato
!!	Per non amarvi non essendo amato.
!!@TVERSE:
!!	Love me, my dear,
!!	Because my heart scorns
!!	All other food and lives only on love.
!!	I will love you, if you love me,
!!	Nor less than my life
!!	May love last and [my life] end with [love].
!!	But if you refuse to love me
!!	I will die in despair
!!	For not loving you, not being loved.
!!@@END:		VERSES
!!@OTHER_CRIT_ED:   None
!!@ATTRIBUTION_ABOUT:	Not secure
!!		<br>
!!		This poem is attributed to Tasso only in a print that was not supervised by him and in reprints thereofr (see Literary Sources).
!!@DATING:	In or before 1585
!!		<br>
!!		The earliest appearence of this poem is in a literary print and in two musical settings published in 1585 (see Literary Sources and Musical Settings).
!!@DEDICATEE:
!!@COMMENTARY:
!!@@END:		VERSEDATA
!!@@BEGIN:	SETTING
!!@CATALOGNUM:	Trm0288h
!!@RIMETITLE:	Amatemi, ben mio
!!@SOLERTI:	288
!!@COMPOSER:	Marenzio, Luca
!!@PRINCEPSTITLE:	Il quinto libro de madrigali a sei voci
!!@PRINCEPSLOC:	Venetia
!!@NORMLOC:	Venice
!!@NORMPUB:	Angelo Gardano
!!@NORMPUBSHORT:	Gardano
!!@PRINCEPSPUB:	Gardano
!!@PRINCEPSYEAR:	1591
!!@PRINCEPSRISM:	M 515
!!@REPRINTS:	1594-14, M516, M517, M518, M524
!!@OVOICES:	6
!!@EXTANTVOICES:	6
!!@PARTBOOKS:	
!!@EXTPARTBOOKS:	
!!@OCLEFS:	C1,C2,C3,C4,C4,F4
!!@OMENSURATION:	C
!!@OKEYSIG:	-
!!@FINAL:	D
!!@TIMPEDITOR:	Coluzzi, Seth
!!@NOTE:		
!!@@END:		SETTING
